!!!OTL: AEIE BUBAEIE DIE BAEBLE SIN GUET
!!!ARE: Europa, Mitteleuropa, Deutschland; France, Elsass
!!!SCT: K0089
!!!YEM: Copyright 1995, estate of Helmut Schaffrath.
**kern
*ICvox
*Ivox
*M3/8
*k[f#]
*G:
=1
{8dd
16dd
16cc
16b
16a
=2
8g
16g
16a
16b
16cc
=3
8dd
8dd
8ee
=4
4.dd}
=5
{8cc
8cc
8a
=6
8.b
16a
8g
=7
8a
8a
8f#
=8
4g
8r}
=9
{8dd
8dd
8b
=10
8cc
8cc
8a
=11
8b
8g
8g
=12
4.a}
=13
{8dd
8dd
8b
=14
4cc
8a
=15
8b
8b
8g
=16
4.a}
=17
{8dd
16dd
16cc
16b
16a
=18
8g
16g
16a
16b
16cc
=19
8dd
8dd
8ee
=20
4.dd}
=21
{8cc
8cc
8a
=22
8.b
16a
8g
=23
8a
8a
8f#
=24
4g
8r}
==
!!!AGN: Kinder -, Wiegen - Lied
!!!ONB: ESAC (Essen Associative Code) Database: KINDER
!!!AMT: simple triple
!!!AIN: vox
!!!EED: Helmut Schaffrath
!!!EEV: 1.0
*-
